src/images/maciek_logo.svg

<?xml version="1.0" encoding="UTF-8"?>
<svg width="43px" height="50px" viewBox="0 0 43 50" version="1.1" xmlns="http://www.w3.org/2000/svg" xmlns:xlink="http://www.w3.org/1999/xlink">
    <!-- Generator: Sketch 52.6 (67491) - http://www.bohemiancoding.com/sketch -->
    <title>Logo</title>
    <desc>Created with Sketch.</desc>
    <defs>
        <path d="M40.28,48.8429066 L37.7886505,48.8429066 L37.7886505,7.59723183 C37.6502415,7.92018616 37.4426311,8.41614429 37.1658131,9.08512111 C36.8889952,9.75409792 36.6813848,10.2731239 36.5429758,10.6422145 L20.28,49.6733564 L4.01702422,10.6422145 L2.77134948,7.59723183 L2.77134948,48.8429066 L0.28,48.8429066 L0.28,0.4 L2.49453287,0.4 L18.8267128,39.7079585 L20.28,43.2373702 L21.7332872,39.7079585 L38.0654671,0.4 L40.28,0.4 L40.28,48.8429066 Z" id="path-1"></path>
    </defs>
    <g id="Page-1" stroke="none" stroke-width="1" fill="none" fill-rule="evenodd">
        <g id="t" transform="translate(-302.000000, -245.000000)">
            <g id="Logo" transform="translate(302.000000, 245.000000)">
                <g id="M" transform="translate(2.000000, 0.000000)">
                    <mask id="mask-2" fill="white">
                        <use xlink:href="#path-1"></use>
                    </mask>
                    <use id="Mask" fill="#BEC8D4" xlink:href="#path-1"></use>
                </g>
                <path d="M40,48.4429066 L37.5086505,48.4429066 L37.5086505,7.19723183 C37.3702415,7.52018616 37.1626311,8.01614429 36.8858131,8.68512111 C36.6089952,9.35409792 36.4013848,9.87312388 36.2629758,10.2422145 L20,49.2733564 L3.73702422,10.2422145 L2.49134948,7.19723183 L2.49134948,48.4429066 L0,48.4429066 L0,-1.0658141e-14 L2.21453287,-1.0658141e-14 L18.5467128,39.3079585 L20,42.8373702 L21.4532872,39.3079585 L37.7854671,-1.0658141e-14 L40,-1.0658141e-14 L40,48.4429066 Z" id="M-Copy-3" fill="#23272F"></path>
            </g>
        </g>
    </g>
</svg>

<svg width="43" height="50" xmlns="http://www.w3.org/2000/svg" xmlns:xlink="http://www.w3.org/1999/xlink"><defs><path d="M40.28 48.843h-2.491V7.597c-.139.323-.346.82-.623 1.488a53.526 53.526 0 0 0-.623 1.557L20.28 49.673 4.017 10.643 2.771 7.596v41.246H.28V.4h2.215l16.332 39.308 1.453 3.53 1.453-3.53L38.065.4h2.215v48.443z" id="a"/></defs><g fill="none" fill-rule="evenodd"><use fill="#BEC8D4" xlink:href="#a" transform="translate(2)"/><path d="M40 48.443h-2.491V7.197c-.139.323-.346.82-.623 1.488a53.526 53.526 0 0 0-.623 1.557L20 49.273 3.737 10.243 2.491 7.196v41.246H0V0h2.215l16.332 39.308L20 42.838l1.453-3.53L37.785 0H40v48.443z" fill="#23272F"/></g></svg>
